X:087
T:Mrs Smollet’s Favourite TS.087
M:C
L:1/8
Q:1/2=60
S:Thomas Sands’ MS,1810,Lincolnshire
R:Air
O:England;Lincolnshire
Z:vmp.Ruairidh Greig, 2011
K:A
(3ecA|E2CEA3c|B>AB>c A2AG|F3A E>CB,>A,|A,/B,/CB,4(3ecA|
E2CEA3c|B>AB>cA2ag|a>ff>aq e>cB>A|(A/B/c)A4:|
|:e|fefa fece|fecAB3e|fefg agfe|c2e4a2|
fefa fece|fecAB2AB|cdcB dcBA|(A/B/c)A4:|]

